X:1
T: Low Down in the Broom
C:
R:Strathspey
Q: 128
K:D
M:4/4
L:1/16
|:d2|DD3 E3F d3c B3A|B3A B3d e4 def2|DD3 E3F d3c B3A|B3A B3c d6 d2|
DD3 E3F d3c B3A|B3A B3d e4 def2|DD3 E3F d3c B3A|B3A B3c d6 A2|
df3 e3d Bd3 A3F|A3A g3f f4 e3a|f3a f3d B3d A3F|AA3 B3c d6:|
